papirus/32x32/apps/netbeans.svg

<?xml version="1.0" encoding="UTF-8" standalone="no"?>
<!-- Created with Inkscape (http://www.inkscape.org/) -->

<svg
   xmlns:dc="http://purl.org/dc/elements/1.1/"
   xmlns:cc="http://creativecommons.org/ns#"
   xmlns:rdf="http://www.w3.org/1999/02/22-rdf-syntax-ns#"
   xmlns:svg="http://www.w3.org/2000/svg"
   xmlns="http://www.w3.org/2000/svg"
   xmlns:sodipodi="http://sodipodi.sourceforge.net/DTD/sodipodi-0.dtd"
   xmlns:inkscape="http://www.inkscape.org/namespaces/inkscape"
   width="32"
   height="32"
   viewBox="0 0 32 32.000001"
   id="svg4195"
   version="1.1"
   inkscape:version="0.91 r13725"
   sodipodi:docname="netbeans.svg">
  <defs
     id="defs4197" />
  <sodipodi:namedview
     id="base"
     pagecolor="#ffffff"
     bordercolor="#666666"
     borderopacity="1.0"
     inkscape:pageopacity="0.0"
     inkscape:pageshadow="2"
     inkscape:zoom="1"
     inkscape:cx="13.726425"
     inkscape:cy="19.046842"
     inkscape:document-units="px"
     inkscape:current-layer="layer1"
     showgrid="false"
     units="px"
     inkscape:window-width="1600"
     inkscape:window-height="849"
     inkscape:window-x="0"
     inkscape:window-y="0"
     inkscape:window-maximized="1" />
  <metadata
     id="metadata4200">
    <rdf:RDF>
      <cc:Work
         rdf:about="">
        <dc:format>image/svg+xml</dc:format>
        <dc:type
           rdf:resource="http://purl.org/dc/dcmitype/StillImage" />
        <dc:title></dc:title>
      </cc:Work>
    </rdf:RDF>
  </metadata>
  <g
     inkscape:label="Layer 1"
     inkscape:groupmode="layer"
     id="layer1"
     transform="translate(0,-1020.3622)">
    <path
       style="color:#000000;font-style:normal;font-variant:normal;font-weight:normal;font-stretch:normal;font-size:medium;line-height:normal;font-family:sans-serif;text-indent:0;text-align:start;text-decoration:none;text-decoration-line:none;text-decoration-style:solid;text-decoration-color:#000000;letter-spacing:normal;word-spacing:normal;text-transform:none;direction:ltr;block-progression:tb;writing-mode:lr-tb;baseline-shift:baseline;text-anchor:start;white-space:normal;clip-rule:nonzero;display:inline;overflow:visible;visibility:visible;opacity:1;isolation:auto;mix-blend-mode:normal;color-interpolation:sRGB;color-interpolation-filters:linearRGB;solid-color:#000000;solid-opacity:1;fill:#e36d6d;fill-opacity:1;fill-rule:nonzero;stroke:none;stroke-width:4;stroke-linecap:square;stroke-linejoin:round;stroke-miterlimit:4;stroke-dasharray:none;stroke-dashoffset:0;stroke-opacity:1;color-rendering:auto;image-rendering:auto;shape-rendering:auto;text-rendering:auto;enable-background:accumulate"
       d="m 16.033108,1022.3633 c -0.25911,-0.01 -0.514884,0.061 -0.739314,0.1939 l -10.5875881,6.2748 c -0.437064,0.259 -0.706272,0.7378 -0.706206,1.2558 l 0,12.5496 c -6.6e-5,0.518 0.269142,0.9968 0.706206,1.2558 l 10.5875881,6.2749 c 0.437004,0.2588 0.975408,0.2588 1.412412,0 l 10.587588,-6.2749 c 0.437064,-0.259 0.706272,-0.7378 0.706206,-1.2558 l 0,-12.5496 c 6.6e-5,-0.518 -0.269142,-0.9968 -0.706206,-1.2558 l -10.587588,-6.2748 c -0.20499,-0.1215 -0.43644,-0.1882 -0.673098,-0.1939 z"
       id="path4147"
       inkscape:connector-curvature="0"
       sodipodi:nodetypes="cccccccccccccc" />
    <path
       sodipodi:nodetypes="cccccccc"
       inkscape:connector-curvature="0"
       id="path4157"
       d="m 16,1050.3622 c -0.243852,0 -0.487224,-0.066 -0.705726,-0.1951 l -10.5885481,-6.2737 c -0.437064,-0.2589 -0.705792,-0.7382 -0.705726,-1.2562 l 0,-12.5499 c -2.4e-5,-0.2107 0.04446,-0.4148 0.126618,-0.6002 L 16,1036.3623 Z"
       style="color:#000000;font-style:normal;font-variant:normal;font-weight:normal;font-stretch:normal;font-size:medium;line-height:normal;font-family:sans-serif;text-indent:0;text-align:start;text-decoration:none;text-decoration-line:none;text-decoration-style:solid;text-decoration-color:#000000;letter-spacing:normal;word-spacing:normal;text-transform:none;direction:ltr;block-progression:tb;writing-mode:lr-tb;baseline-shift:baseline;text-anchor:start;white-space:normal;clip-rule:nonzero;display:inline;overflow:visible;visibility:visible;opacity:0.5;isolation:auto;mix-blend-mode:normal;color-interpolation:sRGB;color-interpolation-filters:linearRGB;solid-color:#000000;solid-opacity:1;fill:#f78d8d;fill-opacity:1;fill-rule:nonzero;stroke:none;stroke-width:4;stroke-linecap:square;stroke-linejoin:round;stroke-miterlimit:4;stroke-dasharray:none;stroke-dashoffset:0;stroke-opacity:1;color-rendering:auto;image-rendering:auto;shape-rendering:auto;text-rendering:auto;enable-background:accumulate" />
    <path
       style="color:#000000;font-style:normal;font-variant:normal;font-weight:normal;font-stretch:normal;font-size:medium;line-height:normal;font-family:sans-serif;text-indent:0;text-align:start;text-decoration:none;text-decoration-line:none;text-decoration-style:solid;text-decoration-color:#000000;letter-spacing:normal;word-spacing:normal;text-transform:none;direction:ltr;block-progression:tb;writing-mode:lr-tb;baseline-shift:baseline;text-anchor:start;white-space:normal;clip-rule:nonzero;display:inline;overflow:visible;visibility:visible;opacity:0.5;isolation:auto;mix-blend-mode:normal;color-interpolation:sRGB;color-interpolation-filters:linearRGB;solid-color:#000000;solid-opacity:1;fill:#e64d4d;fill-opacity:1;fill-rule:nonzero;stroke:none;stroke-width:4;stroke-linecap:square;stroke-linejoin:round;stroke-miterlimit:4;stroke-dasharray:none;stroke-dashoffset:0;stroke-opacity:1;color-rendering:auto;image-rendering:auto;shape-rendering:auto;text-rendering:auto;enable-background:accumulate"
       d="m 16,1050.3622 c 0.243852,0 0.487224,-0.066 0.705726,-0.1951 l 10.588548,-6.2737 c 0.437064,-0.2589 0.705792,-0.7382 0.705726,-1.2562 l 0,-12.5499 c 2.4e-5,-0.2107 -0.04446,-0.4148 -0.126618,-0.6002 L 16,1036.3623 Z"
       id="path4159"
       inkscape:connector-curvature="0"
       sodipodi:nodetypes="cccccccc" />
    <path
       style="color:#000000;font-style:normal;font-variant:normal;font-weight:normal;font-stretch:normal;font-size:medium;line-height:normal;font-family:sans-serif;text-indent:0;text-align:start;text-decoration:none;text-decoration-line:none;text-decoration-style:solid;text-decoration-color:#000000;letter-spacing:normal;word-spacing:normal;text-transform:none;direction:ltr;block-progression:tb;writing-mode:lr-tb;baseline-shift:baseline;text-anchor:start;white-space:normal;clip-rule:nonzero;display:inline;overflow:visible;visibility:visible;opacity:0.2;isolation:auto;mix-blend-mode:normal;color-interpolation:sRGB;color-interpolation-filters:linearRGB;solid-color:#000000;solid-opacity:1;fill:#ffffff;fill-opacity:1;fill-rule:nonzero;stroke:none;stroke-width:4;stroke-linecap:square;stroke-linejoin:round;stroke-miterlimit:4;stroke-dasharray:none;stroke-dashoffset:0;stroke-opacity:1;color-rendering:auto;image-rendering:auto;shape-rendering:auto;text-rendering:auto;enable-background:accumulate"
       d="M 16.033203 2.0019531 C 15.774093 1.9919531 15.517399 2.0624125 15.292969 2.1953125 L 4.7070312 8.4707031 C 4.2699672 8.7297031 3.999934 9.2085625 4 9.7265625 L 4 10.726562 C 3.999934 10.208563 4.2699672 9.7297031 4.7070312 9.4707031 L 15.292969 3.1953125 C 15.517399 3.0624125 15.774093 2.9919531 16.033203 3.0019531 C 16.269861 3.0076531 16.502041 3.0738125 16.707031 3.1953125 L 27.292969 9.4707031 C 27.730033 9.7297031 28.000066 10.208562 28 10.726562 L 28 9.7265625 C 28.000066 9.2085625 27.730033 8.7297031 27.292969 8.4707031 L 16.707031 2.1953125 C 16.502041 2.0738125 16.269861 2.0076531 16.033203 2.0019531 z "
       transform="translate(0,1020.3622)"
       id="path4891" />
    <path
       style="color:#000000;font-style:normal;font-variant:normal;font-weight:normal;font-stretch:normal;font-size:medium;line-height:normal;font-family:sans-serif;text-indent:0;text-align:start;text-decoration:none;text-decoration-line:none;text-decoration-style:solid;text-decoration-color:#000000;letter-spacing:normal;word-spacing:normal;text-transform:none;direction:ltr;block-progression:tb;writing-mode:lr-tb;baseline-shift:baseline;text-anchor:start;white-space:normal;clip-rule:nonzero;display:inline;overflow:visible;visibility:visible;opacity:0.3;isolation:auto;mix-blend-mode:normal;color-interpolation:sRGB;color-interpolation-filters:linearRGB;solid-color:#000000;solid-opacity:1;fill:#000000;fill-opacity:1;fill-rule:nonzero;stroke:none;stroke-width:4;stroke-linecap:square;stroke-linejoin:round;stroke-miterlimit:4;stroke-dasharray:none;stroke-dashoffset:0;stroke-opacity:1;color-rendering:auto;image-rendering:auto;shape-rendering:auto;text-rendering:auto;enable-background:accumulate"
       d="M 4 21.275391 L 4 22.275391 C 3.999934 22.793391 4.2699672 23.27225 4.7070312 23.53125 L 15.292969 29.806641 C 15.729973 30.065441 16.270027 30.065441 16.707031 29.806641 L 27.292969 23.53125 C 27.730033 23.27225 28.000066 22.793391 28 22.275391 L 28 21.275391 C 28.000066 21.793391 27.730033 22.27225 27.292969 22.53125 L 16.707031 28.806641 C 16.270027 29.065441 15.729973 29.065441 15.292969 28.806641 L 4.7070312 22.53125 C 4.2699672 22.27225 3.999934 21.793391 4 21.275391 z "
       transform="translate(0,1020.3622)"
       id="path4896" />
  </g>
</svg>

<?xml version="1.0" encoding="UTF-8" standalone="no"?>
<svg id="svg4195" xmlns:rdf="http://www.w3.org/1999/02/22-rdf-syntax-ns#" xmlns="http://www.w3.org/2000/svg" viewBox="0 0 32 32.000001" width="32" version="1.1" xmlns:cc="http://creativecommons.org/ns#" height="32" xmlns:dc="http://purl.org/dc/elements/1.1/">
 <metadata id="metadata4200">
  <rdf:RDF>
   <cc:Work rdf:about="">
    <dc:format>image/svg+xml</dc:format>
    <dc:type rdf:resource="http://purl.org/dc/dcmitype/StillImage"/>
    <dc:title/>
   </cc:Work>
  </rdf:RDF>
 </metadata>
 <g id="layer1" transform="translate(0 -1020.4)">
  <path id="path4147" style="color-rendering:auto;text-decoration-color:#000000;color:#000000;isolation:auto;mix-blend-mode:normal;shape-rendering:auto;solid-color:#000000;block-progression:tb;text-decoration-line:none;text-decoration-style:solid;image-rendering:auto;white-space:normal;text-indent:0;text-transform:none" d="m16.033 1022.4c-0.25911-0.01-0.51488 0.061-0.73931 0.1939l-10.588 6.2748c-0.43706 0.259-0.70627 0.7378-0.70621 1.2558v12.55c-0.000066 0.518 0.26914 0.9968 0.70621 1.2558l10.588 6.2749c0.437 0.2588 0.97541 0.2588 1.4124 0l10.588-6.2749c0.43706-0.259 0.70627-0.7378 0.70621-1.2558v-12.55c0.000066-0.518-0.26914-0.9968-0.70621-1.2558l-10.588-6.2748c-0.20499-0.1215-0.43644-0.1882-0.6731-0.1939z" fill="#e36d6d"/>
  <path id="path4157" opacity=".5" style="color-rendering:auto;text-decoration-color:#000000;color:#000000;isolation:auto;mix-blend-mode:normal;shape-rendering:auto;solid-color:#000000;block-progression:tb;text-decoration-line:none;text-decoration-style:solid;image-rendering:auto;white-space:normal;text-indent:0;text-transform:none" d="m16 1050.4c-0.24385 0-0.48722-0.066-0.70573-0.1951l-10.589-6.2737c-0.43706-0.2589-0.70579-0.7382-0.70573-1.2562v-12.55c-0.000024-0.2107 0.04446-0.4148 0.12662-0.6002l11.874 7z" fill="#f78d8d"/>
  <path id="path4159" opacity=".5" style="color-rendering:auto;text-decoration-color:#000000;color:#000000;isolation:auto;mix-blend-mode:normal;shape-rendering:auto;solid-color:#000000;block-progression:tb;text-decoration-line:none;text-decoration-style:solid;image-rendering:auto;white-space:normal;text-indent:0;text-transform:none" d="m16 1050.4c0.24385 0 0.48722-0.066 0.70573-0.1951l10.589-6.2737c0.43706-0.2589 0.70579-0.7382 0.70573-1.2562v-12.55c0.000024-0.2107-0.04446-0.4148-0.12662-0.6002l-11.874 7z" fill="#e64d4d"/>
  <path id="path4891" opacity=".2" style="color-rendering:auto;text-decoration-color:#000000;color:#000000;isolation:auto;mix-blend-mode:normal;shape-rendering:auto;solid-color:#000000;block-progression:tb;text-decoration-line:none;text-decoration-style:solid;image-rendering:auto;white-space:normal;text-indent:0;text-transform:none" d="m16.033 2.002c-0.259-0.01-0.516 0.0604-0.74 0.1933l-10.586 6.2754c-0.437 0.259-0.7071 0.7379-0.707 1.2559v1.0004c-0.0001-0.518 0.27-0.9973 0.707-1.2563l10.586-6.2754c0.224-0.1329 0.481-0.2033 0.74-0.1933 0.237 0.0057 0.469 0.0718 0.674 0.1933l10.586 6.2754c0.437 0.259 0.707 0.7383 0.707 1.2563v-1.0004c0-0.518-0.27-0.9969-0.707-1.2559l-10.586-6.2754c-0.205-0.1215-0.437-0.1876-0.674-0.1933z" transform="translate(0 1020.4)" fill="#fff"/>
  <path id="path4896" opacity=".2" style="color-rendering:auto;text-decoration-color:#000000;color:#000000;isolation:auto;mix-blend-mode:normal;shape-rendering:auto;solid-color:#000000;block-progression:tb;text-decoration-line:none;text-decoration-style:solid;image-rendering:auto;white-space:normal;text-indent:0;text-transform:none" d="m4 1042.6v1c-0.000066 0.518 0.26997 0.9969 0.70703 1.2559l10.586 6.2754c0.437 0.2588 0.97706 0.2588 1.4141 0l10.586-6.2754c0.43706-0.259 0.7071-0.7379 0.70703-1.2559v-1c0.000066 0.518-0.26997 0.9969-0.70703 1.2559l-10.586 6.2754c-0.437 0.2588-0.97706 0.2588-1.4141 0l-10.586-6.3c-0.437-0.3-0.7071-0.7-0.707-1.3z"/>
 </g>
</svg>
